X:88
T:Red Haired Boy
C:Traditional - Bluegrass version
M:4/4
L:1/8
Q:1/8=440
K:A
AF|:E2AA ABcd|efec d2=gf|edB=G ABAG|EDEF =GBAG|
EA2B ABcd|efec d2cd|e2ab a=ged|1 c2A2 A2AF:|2 c2A2 A2ef|
|:=g2ef geag|faec d2cd|edB=G ABAG|EDEF =GBAG|
EA2B ABcd|efec d2cd|e2ab a=ged|1 c2A2 A2ef:|2 c2A2 A4|
